assets/web/icons/help.svg

<svg width="24" height="24" viewBox="0 0 24 24" fill="none" xmlns="http://www.w3.org/2000/svg">
<path d="M12 8C11.1716 8 10.5 8.67157 10.5 9.5C10.5 10.0523 10.0523 10.5 9.5 10.5C8.94772 10.5 8.5 10.0523 8.5 9.5C8.5 7.567 10.067 6 12 6C13.933 6 15.5 7.567 15.5 9.5C15.5 10.4478 15.122 11.3093 14.5106 11.9386C14.3876 12.0653 14.2702 12.1825 14.1583 12.2944C13.8705 12.5819 13.6184 12.8338 13.3972 13.118C13.1052 13.4932 13 13.769 13 14C13 14.5523 12.5523 15 12 15C11.4477 15 11 14.5523 11 14C11 13.1264 11.4067 12.4192 11.8189 11.8896C12.1239 11.4977 12.5073 11.1151 12.8184 10.8046C12.9122 10.7109 12.9995 10.6238 13.0761 10.545C13.3394 10.2739 13.5 9.90673 13.5 9.5C13.5 8.67157 12.8284 8 12 8Z" fill="currentColor"/>
<path d="M13 17C13 17.5523 12.5523 18 12 18C11.4477 18 11 17.5523 11 17C11 16.4477 11.4477 16 12 16C12.5523 16 13 16.4477 13 17Z" fill="currentColor"/>
<path d="M8.1 21.2125C9.31667 21.7375 10.6167 22 12 22C13.3833 22 14.6833 21.7375 15.9 21.2125C17.1167 20.6875 18.175 19.975 19.075 19.075C19.975 18.175 20.6875 17.1167 21.2125 15.9C21.7375 14.6833 22 13.3833 22 12C22 10.6167 21.7375 9.31667 21.2125 8.1C20.6875 6.88333 19.975 5.825 19.075 4.925C18.175 4.025 17.1167 3.3125 15.9 2.7875C14.6833 2.2625 13.3833 2 12 2C10.6167 2 9.31667 2.2625 8.1 2.7875C6.88333 3.3125 5.825 4.025 4.925 4.925C4.025 5.825 3.3125 6.88333 2.7875 8.1C2.2625 9.31667 2 10.6167 2 12C2 13.3833 2.2625 14.6833 2.7875 15.9C3.3125 17.1167 4.025 18.175 4.925 19.075C5.825 19.975 6.88333 20.6875 8.1 21.2125ZM17.675 17.675C16.125 19.225 14.2333 20 12 20C9.76667 20 7.875 19.225 6.325 17.675C4.775 16.125 4 14.2333 4 12C4 9.76667 4.775 7.875 6.325 6.325C7.875 4.775 9.76667 4 12 4C14.2333 4 16.125 4.775 17.675 6.325C19.225 7.875 20 9.76667 20 12C20 14.2333 19.225 16.125 17.675 17.675Z" fill="currentColor"/>
</svg>

<svg xmlns="http://www.w3.org/2000/svg" width="24" height="24" fill="currentColor" viewBox="0 0 24 24">
  <path d="M12 8a1.5 1.5 0 0 0-1.5 1.5 1 1 0 1 1-2 0 3.5 3.5 0 1 1 6.01 2.439c-.122.126-.24.243-.352.355-.287.288-.54.54-.76.824-.293.375-.398.651-.398.882a1 1 0 1 1-2 0c0-.874.407-1.58.819-2.11.305-.392.688-.775 1-1.085l.257-.26A1.5 1.5 0 0 0 12 8Zm1 9a1 1 0 1 1-2 0 1 1 0 0 1 2 0Z"/>
  <path d="M8.1 21.212A9.738 9.738 0 0 0 12 22a9.738 9.738 0 0 0 3.9-.788 10.098 10.098 0 0 0 3.175-2.137c.9-.9 1.613-1.958 2.137-3.175A9.738 9.738 0 0 0 22 12a9.738 9.738 0 0 0-.788-3.9 10.099 10.099 0 0 0-2.137-3.175c-.9-.9-1.958-1.612-3.175-2.137A9.738 9.738 0 0 0 12 2a9.738 9.738 0 0 0-3.9.788 10.099 10.099 0 0 0-3.175 2.137c-.9.9-1.612 1.958-2.137 3.175A9.738 9.738 0 0 0 2 12a9.74 9.74 0 0 0 .788 3.9 10.098 10.098 0 0 0 2.137 3.175c.9.9 1.958 1.613 3.175 2.137Zm9.575-3.537C16.125 19.225 14.233 20 12 20c-2.233 0-4.125-.775-5.675-2.325C4.775 16.125 4 14.233 4 12c0-2.233.775-4.125 2.325-5.675C7.875 4.775 9.767 4 12 4c2.233 0 4.125.775 5.675 2.325C19.225 7.875 20 9.767 20 12c0 2.233-.775 4.125-2.325 5.675Z"/>
</svg>
